images/avatar-frame.svg

<svg fill="none" height="162" viewBox="0 0 154 162" width="154" xmlns="http://www.w3.org/2000/svg" xmlns:xlink="http://www.w3.org/1999/xlink"><clipPath id="a"><path d="m0 0h154v162h-154z"/></clipPath><g clip-path="url(#a)"><g fill="#42404f"><path d="m27.1174 32.3823-4.7157-10.6629 1.3966-1.2873 10.1582 5.6677-1.0426.9606-9.4504-5.2354.3156-.2882 4.3713 9.8945-1.0426.9606zm-.4304-3.1124-.8609-.951 4.2278-3.881.8609.9511z"/><path d="m35.9461 24.592-6.007-9.2796 1.1574-.7589 9.5079 4.1018-4.6966-7.2527 1.1574-.7493 6.007 9.2797-1.1574.7493-9.5174-4.1115 4.6965 7.2527-1.1574.7589z"/><path d="m45.9322 18.4148-4.3618-10.1634 3.1183-1.35448c.1052-.04803.287-.12488.5452-.23055.2583-.10567.5165-.19212.7652-.25937.8226-.24015 1.607-.23055 2.3339 0 .727.24016 1.3774.66283 1.9609 1.26803.5739.60519 1.0522 1.34488 1.4252 2.19983.3731.86454.5835 1.71954.6218 2.55524.0478.8358-.0957 1.6043-.4209 2.2959-.3252.6917-.8609 1.2584-1.5974 1.7003-.22.1345-.4591.2594-.7174.3747-.2582.1153-.44.2017-.5356.2401l-3.1183 1.3545zm.7748-1.7579 1.8365-.7973c.1817-.0769.373-.1729.593-.2786.2105-.1057.4018-.2114.5452-.3074.507-.3458.8513-.7685 1.0426-1.2777.1818-.5091.2392-1.0662.1722-1.681-.0765-.6052-.2487-1.2296-.5165-1.8541-.2774-.64357-.6122-1.19113-1.0043-1.66184-.3922-.47071-.8418-.80692-1.3392-1.01826s-1.0426-.24977-1.6261-.11528c-.1817.03843-.3826.09607-.6121.19213-.2296.09606-.4305.17291-.5931.24015l-1.8365.79732z"/><path d="m58.7878 13.5736-1.1669-4.44772-5.2226-5.30266 1.5304-.40346 3.96 4.01541 1.473-5.44675 1.5305-.40346-1.9513 7.19509 1.1669 4.44775-1.3295.3554z"/><path d="m69.7209 11.4505-.6983-11.047196 6.4183-.41306962.0861 1.36408562-5.06.32662.22 3.47746 4.1417-.26897.0861 1.36409-4.1418.26897.3061 4.84161z"/><path d="m77.7557 10.9799 4.5243-10.749431 1.8939.144094 2.8313 11.316137-1.4156-.1056-2.6496-10.49967.4304.02881-4.1991 9.97126-1.4061-.1056zm1.9704-2.44001.0956-1.27764 5.7105.44189-.0957 1.27764z"/><path d="m89.4539 12.1516 2.5826-10.75902 4.2374 1.02787c.1052.02882.2296.05764.3731.10567.1434.04803.2774.09606.4017.1537.5548.23055.9948.54755 1.32.95102.3252.40346.5261.86456.6122 1.3833s.0574 1.06629-.0765 1.63306c-.2009.83575-.5931 1.50819-1.167 2.00771-.5739.49953-1.3009.73008-2.1713.68205l-.5261-.03843-3.3-.79732-.9565 3.97699-1.32-.317zm2.5826-4.91842 2.86.69166c.0957.01921.2009.04803.3253.06724.1243.01921.2391.02882.3634.02882.3635 0 .6792-.07685.9374-.24016.2678-.1633.4783-.37464.6504-.63401.1722-.25937.287-.53795.3635-.84535.0766-.2978.0957-.6052.0574-.9126-.0287-.3074-.1339-.59559-.2965-.86456-.1626-.26898-.4017-.48031-.727-.64362-.1052-.04803-.2104-.09606-.3347-.13449-.1148-.03842-.2296-.06724-.3157-.09606l-2.86-.69165-1.0235 4.25557zm3.7974 6.45542-1.0617-4.88959 1.4061-.08646 1.1765 5.34105z"/><path d="m100.004 14.8605 4.477-10.11538 1.129.50913.239 9.75035 7.346-6.36895 1.148.50914-4.467 10.10581-1.186-.5284 3.252-7.3584-6.677 5.8406-.66-.2978-.162-8.89535-3.262 7.36795-1.1862-.5283z"/><path d="m112.592 20.98 6.141-9.1836 5.777 3.9001-.717 1.0759-4.649-3.1412-1.922 2.8819 3.883 2.6225-.717 1.0759-3.884-2.6225-2.056 3.074 4.649 3.1412-.718 1.0759-5.777-3.9001z"/><path d="m120.713 26.705 7.451-8.1557 3.214 2.9587c.077.0769.172.1634.278.269.105.1057.201.2114.277.3266.383.4707.612.9607.689 1.4794.076.5187.038 1.0183-.134 1.5082s-.459.9606-.851 1.3929c-.584.634-1.244 1.0279-1.99 1.1912s-1.492 0-2.229-.4611l-.44-.2882-2.496-2.3055-2.755 3.0163-1.004-.9222zm4.63-3.0452 2.171 1.9982c.067.0672.153.1344.258.2113.105.0768.201.1441.297.2017.315.1825.621.2594.937.2498s.603-.0865.88-.2402c.277-.1441.517-.3362.727-.5571.21-.2306.373-.4803.488-.7685s.172-.586.162-.8934c-.019-.3074-.124-.6148-.325-.9126-.067-.0961-.143-.1921-.229-.2786s-.163-.1729-.239-.2402l-2.172-1.9981-2.946 3.2277zm.2 7.5025 1.426-4.7935 1.272.6052-1.55 5.245z"/><path d="m30.0922 147.101 5.9495-9.318 3.6635 2.363c.0861.057.1913.134.3157.221.1243.086.2295.182.3347.278.4496.404.7653.846.9279 1.336.1722.49.2104.989.1243 1.508s-.2869 1.018-.6026 1.518c-.3156.499-.6887.893-1.1287 1.191-.4304.298-.9087.471-1.4156.519-.5166.048-1.0426-.048-1.5879-.298-.1243-.058-.2582-.125-.3826-.192-.1339-.068-.2391-.135-.3252-.192l-2.5156-1.624-2.2 3.439-1.1479-.74zm4.0365-3.804 2.4774 1.594c.0765.048.1817.106.2869.164.1053.057.22.105.3253.144.3443.125.66.153.966.086.3061-.067.574-.192.8227-.384.2486-.192.4495-.413.6217-.672.1722-.26.2869-.538.3539-.846.067-.307.0765-.605 0-.912-.067-.298-.2296-.586-.4783-.846-.0765-.086-.1721-.163-.2678-.24-.0956-.077-.1913-.144-.2678-.192l-2.4774-1.595-2.353 3.689z"/><path d="m44.44 155.391c-1.0043-.442-1.76-1.038-2.267-1.787-.5069-.749-.7747-1.604-.7939-2.565-.0191-.951.1913-1.95.6409-2.997s1.033-1.883 1.7504-2.517 1.5113-1.018 2.4105-1.162c.8991-.144 1.8461.01 2.8504.451 1.0139.442 1.7696 1.038 2.2765 1.797.507.759.7748 1.604.7939 2.565.0192.951-.2008 1.95-.6504 2.997s-1.033 1.883-1.7409 2.517c-.7078.634-1.5113 1.018-2.4104 1.162-.8991.135-1.8461-.01-2.86-.451zm.5165-1.201c.7557.336 1.4539.442 2.1044.317.6504-.125 1.2339-.442 1.7504-.941.5165-.5.9565-1.163 1.3009-1.97.3539-.806.5356-1.575.5452-2.295.0096-.721-.153-1.364-.507-1.931-.3539-.557-.8991-1.009-1.6547-1.345-.7557-.336-1.454-.442-2.0948-.317-.6505.125-1.2339.442-1.7505.951-.5165.509-.9565 1.162-1.3104 1.969s-.5356 1.566-.5548 2.286c-.0095.721.1531 1.365.507 1.931.3539.567.9087 1.019 1.6548 1.355z"/><path d="m53.24 158.504 2.707-10.731 4.2182 1.076c.1052.029.2296.058.3635.106.1435.048.2774.096.4017.154.5548.24.9948.557 1.3105.97.3156.413.5165.874.593 1.393s.0478 1.066-.0956 1.633c-.2105.836-.6026 1.498-1.1957 1.998-.5835.5-1.3104.72-2.1809.663l-.526-.048-3.2905-.836-1.0043 3.958-1.32-.336zm2.64-4.88 2.86.73c.0957.019.2009.048.3252.067.1244.019.2392.029.3635.038.3635 0 .6791-.067.9374-.221.2678-.153.4878-.365.66-.624s.2965-.538.373-.836c.0766-.298.0957-.605.067-.912-.0287-.308-.1244-.596-.287-.865s-.4017-.48-.7174-.643c-.1052-.049-.2104-.097-.3347-.145-.1244-.048-.22-.076-.3157-.096l-2.8504-.73-1.0713 4.246zm3.7209 6.503-1.0044-4.899 1.4061-.067 1.1096 5.36-1.5113-.384z"/><path d="m68.1043 161.472.9757-9.722-3.74-.375.1243-1.296 8.8287.893-.1243 1.297-3.74-.375-.9661 9.722-1.3583-.135z"/><path d="m76.8278 162-.3539-11.057 6.4278-.211.0479 1.364-5.06.163.1147 3.478 4.1418-.135.0478 1.364-4.1417.135.153 4.851-1.3582.048z"/><path d="m91.6539 160.857c-1.0808.202-2.0374.125-2.8791-.221-.8418-.346-1.5304-.903-2.0852-1.681s-.9183-1.729-1.1287-2.853c-.2009-1.124-.1818-2.142.0574-3.065.2391-.922.6982-1.69 1.3582-2.305.6696-.615 1.54-1.018 2.6209-1.22s2.047-.125 2.8887.221 1.5304.903 2.0756 1.681c.5453.778.9183 1.729 1.1192 2.853.2008 1.124.1817 2.142-.0574 3.064-.2391.923-.6887 1.691-1.3583 2.306-.6695.615-1.54 1.018-2.6304 1.22zm-.2295-1.278c.813-.144 1.4443-.451 1.9226-.912.4687-.471.7843-1.057.9278-1.768.153-.711.153-1.498 0-2.363-.1531-.865-.4304-1.604-.8226-2.209-.3922-.606-.8896-1.048-1.4922-1.317s-1.3104-.336-2.1139-.192-1.4444.442-1.913.913c-.4687.471-.7748 1.057-.9279 1.767-.153.711-.153 1.499 0 2.373.1531.865.4209 1.604.8131 2.21.3921.605.8895 1.047 1.4921 1.316.6027.269 1.3105.336 2.1235.192z"/><path d="m100.75 158.455-3.5674-10.471 1.2913-.442 3.1471 9.242 4.84-1.662.421 1.229-6.122 2.104z"/><path d="m110.201 154.853-4.591-10.058 1.233-.566 4.592 10.057z"/><path d="m119.642 150.098c-.938.576-1.856.855-2.765.845-.908-.009-1.75-.278-2.544-.807-.794-.528-1.483-1.277-2.076-2.248-.593-.97-.947-1.93-1.052-2.872-.115-.951.038-1.835.431-2.651.392-.817 1.061-1.518 1.999-2.094.937-.577 1.865-.865 2.764-.855.909.009 1.751.278 2.544.807.794.528 1.483 1.277 2.076 2.248.593.97.947 1.93 1.062 2.872.115.951-.029 1.825-.431 2.642-.401.816-1.061 1.517-2.008 2.094zm-.679-1.114c.698-.423 1.186-.942 1.454-1.557.267-.605.344-1.268.229-1.988-.115-.721-.402-1.451-.861-2.2s-.985-1.335-1.559-1.758c-.583-.423-1.205-.653-1.865-.682s-1.339.163-2.047.596c-.698.432-1.186.941-1.454 1.546s-.344 1.268-.23 1.989c.115.72.402 1.45.861 2.209.459.749.976 1.345 1.559 1.768.584.422 1.206.653 1.866.682s1.348-.164 2.047-.596z"/></g><path d="m21.12 133.133c-12.80782-13.737-20.641736-32.2-20.641736-52.4978 0-14.9378 4.246956-28.8861 11.593036-40.6826" stroke="#42404f" stroke-miterlimit="10"/><path d="m141.929 39.9526c7.346 11.7965 11.593 25.7448 11.593 40.6826 0 20.2978-7.834 38.7608-20.642 52.4978" stroke="#42404f" stroke-miterlimit="10"/></g></svg>

<svg width="154" height="162" viewBox="0 0 154 162" fill="none" xmlns="http://www.w3.org/2000/svg">
<g clip-path="url(#clip0_356_89)">
<path d="M27.1174 32.3823L22.4017 21.7194L23.7983 20.4321L33.9565 26.0998L32.9139 27.0604L23.4635 21.825L23.7791 21.5368L28.1504 31.4313L27.1078 32.3919L27.1174 32.3823ZM26.687 29.2699L25.8261 28.3189L30.0539 24.4379L30.9148 25.389L26.687 29.2699Z" fill="#42404F"/>
<path d="M35.9461 24.592L29.9391 15.3124L31.0965 14.5535L40.6044 18.6553L35.9078 11.4026L37.0652 10.6533L43.0722 19.933L41.9148 20.6823L32.3974 16.5708L37.0939 23.8235L35.9365 24.5824L35.9461 24.592Z" fill="#42404F"/>
<path d="M45.9322 18.4148L41.5704 8.2514L44.6887 6.89692C44.7939 6.84889 44.9757 6.77204 45.2339 6.66637C45.4922 6.5607 45.7504 6.47425 45.9991 6.407C46.8217 6.16685 47.6061 6.17645 48.333 6.407C49.06 6.64716 49.7104 7.06983 50.2939 7.67503C50.8678 8.28022 51.3461 9.01991 51.7191 9.87486C52.0922 10.7394 52.3026 11.5944 52.3409 12.4301C52.3887 13.2659 52.2452 14.0344 51.92 14.726C51.5948 15.4177 51.0591 15.9844 50.3226 16.4263C50.1026 16.5608 49.8635 16.6857 49.6052 16.801C49.347 16.9163 49.1652 17.0027 49.0696 17.0411L45.9513 18.3956L45.9322 18.4148ZM46.707 16.6569L48.5435 15.8596C48.7252 15.7827 48.9165 15.6867 49.1365 15.581C49.347 15.4753 49.5383 15.3696 49.6817 15.2736C50.1887 14.9278 50.533 14.5051 50.7243 13.9959C50.9061 13.4868 50.9635 12.9297 50.8965 12.3149C50.82 11.7097 50.6478 11.0853 50.38 10.4608C50.1026 9.81723 49.7678 9.26967 49.3757 8.79896C48.9835 8.32825 48.5339 7.99204 48.0365 7.7807C47.5391 7.56936 46.9939 7.53093 46.4104 7.66542C46.2287 7.70385 46.0278 7.76149 45.7983 7.85755C45.5687 7.95361 45.3678 8.03046 45.2052 8.0977L43.3687 8.89502L46.707 16.6569Z" fill="#42404F"/>
<path d="M58.7878 13.5736L57.6209 9.12588L52.3983 3.82322L53.9287 3.41976L57.8887 7.43517L59.3617 1.98842L60.8922 1.58496L58.9409 8.78005L60.1078 13.2278L58.7783 13.5832L58.7878 13.5736Z" fill="#42404F"/>
<path d="M69.7209 11.4505L69.0226 0.403304L75.4409 -0.00976562L75.527 1.35432L70.467 1.68094L70.687 5.1584L74.8287 4.88943L74.9148 6.25352L70.773 6.52249L71.0791 11.3641L69.7209 11.4505Z" fill="#42404F"/>
<path d="M77.7557 10.9799L82.28 0.230469L84.1739 0.374563L87.0052 11.6907L85.5896 11.5851L82.94 1.08543L83.3704 1.11424L79.1713 11.0855L77.7652 10.9799H77.7557ZM79.7261 8.53989L79.8217 7.26225L85.5322 7.70414L85.4365 8.98178L79.7261 8.53989Z" fill="#42404F"/>
<path d="M89.4539 12.1516L92.0365 1.39258L96.2739 2.42045C96.3791 2.44927 96.5035 2.47809 96.647 2.52612C96.7904 2.57415 96.9244 2.62218 97.0487 2.67982C97.6035 2.91037 98.0435 3.22737 98.3687 3.63084C98.6939 4.0343 98.8948 4.4954 98.9809 5.01414C99.067 5.53288 99.0383 6.08043 98.9044 6.6472C98.7035 7.48295 98.3113 8.15539 97.7374 8.65491C97.1635 9.15444 96.4365 9.38499 95.5661 9.33696L95.04 9.29853L91.74 8.50121L90.7835 12.4782L89.4635 12.1612L89.4539 12.1516ZM92.0365 7.23318L94.8965 7.92484C94.9922 7.94405 95.0974 7.97287 95.2218 7.99208C95.3461 8.01129 95.4609 8.0209 95.5852 8.0209C95.9487 8.0209 96.2644 7.94405 96.5226 7.78074C96.7904 7.61744 97.0009 7.4061 97.173 7.14673C97.3452 6.88736 97.46 6.60878 97.5365 6.30138C97.6131 6.00358 97.6322 5.69618 97.5939 5.38878C97.5652 5.08138 97.46 4.79319 97.2974 4.52422C97.1348 4.25524 96.8957 4.04391 96.5704 3.8806C96.4652 3.83257 96.36 3.78454 96.2357 3.74611C96.1209 3.70769 96.0061 3.67887 95.92 3.65005L93.06 2.9584L92.0365 7.21397V7.23318ZM95.8339 13.6886L94.7722 8.79901L96.1783 8.71255L97.3548 14.0536L95.8339 13.6886Z" fill="#42404F"/>
<path d="M100.004 14.8605L104.481 4.74512L105.61 5.25425L105.849 15.0046L113.195 8.63565L114.343 9.14479L109.876 19.2506L108.69 18.7222L111.942 11.3638L105.265 17.2044L104.605 16.9066L104.443 8.01125L101.181 15.3792L99.9948 14.8509L100.004 14.8605Z" fill="#42404F"/>
<path d="M112.592 20.98L118.733 11.7964L124.51 15.6965L123.793 16.7724L119.144 13.6312L117.222 16.5131L121.105 19.1356L120.388 20.2115L116.504 17.589L114.448 20.663L119.097 23.8042L118.379 24.8801L112.602 20.98H112.592Z" fill="#42404F"/>
<path d="M120.713 26.705L128.164 18.5493L131.378 21.508C131.455 21.5849 131.55 21.6714 131.656 21.777C131.761 21.8827 131.857 21.9884 131.933 22.1036C132.316 22.5743 132.545 23.0643 132.622 23.583C132.698 24.1017 132.66 24.6013 132.488 25.0912C132.316 25.5811 132.029 26.0518 131.637 26.4841C131.053 27.1181 130.393 27.512 129.647 27.6753C128.901 27.8386 128.155 27.6753 127.418 27.2142L126.978 26.926L124.482 24.6205L121.727 27.6368L120.723 26.7146L120.713 26.705ZM125.343 23.6598L127.514 25.658C127.581 25.7252 127.667 25.7924 127.772 25.8693C127.877 25.9461 127.973 26.0134 128.069 26.071C128.384 26.2535 128.69 26.3304 129.006 26.3208C129.322 26.3112 129.609 26.2343 129.886 26.0806C130.163 25.9365 130.403 25.7444 130.613 25.5235C130.823 25.2929 130.986 25.0432 131.101 24.755C131.216 24.4668 131.273 24.169 131.263 23.8616C131.244 23.5542 131.139 23.2468 130.938 22.949C130.871 22.8529 130.795 22.7569 130.709 22.6704C130.623 22.5839 130.546 22.4975 130.47 22.4302L128.298 20.4321L125.352 23.6598H125.343ZM125.543 31.1623L126.969 26.3688L128.241 26.974L126.691 32.219L125.543 31.1623Z" fill="#42404F"/>
<path d="M30.0922 147.101L36.0417 137.783L39.7052 140.146C39.7913 140.203 39.8965 140.28 40.0209 140.367C40.1452 140.453 40.2504 140.549 40.3556 140.645C40.8052 141.049 41.1209 141.491 41.2835 141.981C41.4557 142.471 41.4939 142.97 41.4078 143.489C41.3217 144.008 41.1209 144.507 40.8052 145.007C40.4896 145.506 40.1165 145.9 39.6765 146.198C39.2461 146.496 38.7678 146.669 38.2609 146.717C37.7443 146.765 37.2183 146.669 36.673 146.419C36.5487 146.361 36.4148 146.294 36.2904 146.227C36.1565 146.159 36.0513 146.092 35.9652 146.035L33.4496 144.411L31.2496 147.85L30.1017 147.11L30.0922 147.101ZM34.1287 143.297L36.6061 144.891C36.6826 144.939 36.7878 144.997 36.893 145.055C36.9983 145.112 37.113 145.16 37.2183 145.199C37.5626 145.324 37.8783 145.352 38.1843 145.285C38.4904 145.218 38.7583 145.093 39.007 144.901C39.2556 144.709 39.4565 144.488 39.6287 144.229C39.8009 143.969 39.9156 143.691 39.9826 143.383C40.0496 143.076 40.0591 142.778 39.9826 142.471C39.9156 142.173 39.753 141.885 39.5043 141.625C39.4278 141.539 39.3322 141.462 39.2365 141.385C39.1409 141.308 39.0452 141.241 38.9687 141.193L36.4913 139.598L34.1383 143.287L34.1287 143.297Z" fill="#42404F"/>
<path d="M44.44 155.391C43.4357 154.949 42.68 154.353 42.173 153.604C41.6661 152.855 41.3983 152 41.3791 151.039C41.36 150.088 41.5704 149.089 42.02 148.042C42.4696 146.995 43.053 146.159 43.7704 145.525C44.4878 144.891 45.2817 144.507 46.1809 144.363C47.08 144.219 48.027 144.373 49.0313 144.814C50.0452 145.256 50.8009 145.852 51.3078 146.611C51.8148 147.37 52.0826 148.215 52.1017 149.176C52.1209 150.127 51.9009 151.126 51.4513 152.173C51.0017 153.22 50.4183 154.056 49.7104 154.69C49.0026 155.324 48.1991 155.708 47.3 155.852C46.4009 155.987 45.4539 155.842 44.44 155.401V155.391ZM44.9565 154.19C45.7122 154.526 46.4104 154.632 47.0609 154.507C47.7113 154.382 48.2948 154.065 48.8113 153.566C49.3278 153.066 49.7678 152.403 50.1122 151.596C50.4661 150.79 50.6478 150.021 50.6574 149.301C50.667 148.58 50.5044 147.937 50.1504 147.37C49.7965 146.813 49.2513 146.361 48.4957 146.025C47.74 145.689 47.0417 145.583 46.4009 145.708C45.7504 145.833 45.167 146.15 44.6504 146.659C44.1339 147.168 43.6939 147.821 43.34 148.628C42.9861 149.435 42.8044 150.194 42.7852 150.914C42.7757 151.635 42.9383 152.279 43.2922 152.845C43.6461 153.412 44.2009 153.864 44.947 154.2L44.9565 154.19Z" fill="#42404F"/>
<path d="M53.24 158.504L55.947 147.773L60.1652 148.849C60.2704 148.878 60.3948 148.907 60.5287 148.955C60.6722 149.003 60.8061 149.051 60.9304 149.109C61.4852 149.349 61.9252 149.666 62.2409 150.079C62.5565 150.492 62.7574 150.953 62.8339 151.472C62.9104 151.991 62.8817 152.538 62.7383 153.105C62.5278 153.941 62.1357 154.603 61.5426 155.103C60.9591 155.603 60.2322 155.823 59.3617 155.766L58.8357 155.718L55.5452 154.882L54.5409 158.84L53.2209 158.504H53.24ZM55.88 153.624L58.74 154.354C58.8357 154.373 58.9409 154.402 59.0652 154.421C59.1896 154.44 59.3044 154.45 59.4287 154.459C59.7922 154.459 60.1078 154.392 60.3661 154.238C60.6339 154.085 60.8539 153.873 61.0261 153.614C61.1983 153.355 61.3226 153.076 61.3991 152.778C61.4757 152.48 61.4948 152.173 61.4661 151.866C61.4374 151.558 61.3417 151.27 61.1791 151.001C61.0165 150.732 60.7774 150.521 60.4617 150.358C60.3565 150.309 60.2513 150.261 60.127 150.213C60.0026 150.165 59.907 150.137 59.8113 150.117L56.9609 149.387L55.8896 153.633L55.88 153.624ZM59.6009 160.127L58.5965 155.228L60.0026 155.161L61.1122 160.521L59.6009 160.137V160.127Z" fill="#42404F"/>
<path d="M68.1043 161.472L69.08 151.75L65.34 151.375L65.4643 150.079L74.293 150.972L74.1687 152.269L70.4287 151.894L69.4626 161.616L68.1043 161.481V161.472Z" fill="#42404F"/>
<path d="M76.8278 162L76.4739 150.943L82.9017 150.732L82.9496 152.096L77.8896 152.259L78.0043 155.737L82.1461 155.602L82.1939 156.966L78.0522 157.101L78.2052 161.952L76.847 162H76.8278Z" fill="#42404F"/>
<path d="M91.6539 160.857C90.5731 161.059 89.6165 160.982 88.7748 160.636C87.933 160.29 87.2444 159.733 86.6896 158.955C86.1348 158.177 85.7713 157.226 85.5609 156.102C85.36 154.978 85.3791 153.96 85.6183 153.037C85.8574 152.115 86.3165 151.347 86.9765 150.732C87.6461 150.117 88.5165 149.714 89.5974 149.512C90.6783 149.31 91.6444 149.387 92.4861 149.733C93.3278 150.079 94.0165 150.636 94.5617 151.414C95.107 152.192 95.48 153.143 95.6809 154.267C95.8817 155.391 95.8626 156.409 95.6235 157.331C95.3844 158.254 94.9348 159.022 94.2652 159.637C93.5957 160.252 92.7252 160.655 91.6348 160.857H91.6539ZM91.4244 159.579C92.2374 159.435 92.8687 159.128 93.347 158.667C93.8157 158.196 94.1313 157.61 94.2748 156.899C94.4278 156.188 94.4278 155.401 94.2748 154.536C94.1217 153.671 93.8444 152.932 93.4522 152.327C93.06 151.721 92.5626 151.279 91.96 151.01C91.3574 150.741 90.6496 150.674 89.8461 150.818C89.0426 150.962 88.4017 151.26 87.9331 151.731C87.4644 152.202 87.1583 152.788 87.0052 153.498C86.8522 154.209 86.8522 154.997 87.0052 155.871C87.1583 156.736 87.4261 157.475 87.8183 158.081C88.2104 158.686 88.7078 159.128 89.3104 159.397C89.9131 159.666 90.6209 159.733 91.4339 159.589L91.4244 159.579Z" fill="#42404F"/>
<path d="M100.75 158.455L97.1826 147.984L98.4739 147.542L101.621 156.784L106.461 155.122L106.882 156.351L100.76 158.455H100.75Z" fill="#42404F"/>
<path d="M110.201 154.853L105.61 144.795L106.843 144.229L111.435 154.286L110.201 154.853Z" fill="#42404F"/>
<path d="M119.642 150.098C118.704 150.674 117.786 150.953 116.877 150.943C115.969 150.934 115.127 150.665 114.333 150.136C113.539 149.608 112.85 148.859 112.257 147.888C111.664 146.918 111.31 145.958 111.205 145.016C111.09 144.065 111.243 143.181 111.636 142.365C112.028 141.548 112.697 140.847 113.635 140.271C114.572 139.694 115.5 139.406 116.399 139.416C117.308 139.425 118.15 139.694 118.943 140.223C119.737 140.751 120.426 141.5 121.019 142.471C121.612 143.441 121.966 144.401 122.081 145.343C122.196 146.294 122.052 147.168 121.65 147.985C121.249 148.801 120.589 149.502 119.642 150.079V150.098ZM118.963 148.984C119.661 148.561 120.149 148.042 120.417 147.427C120.684 146.822 120.761 146.159 120.646 145.439C120.531 144.718 120.244 143.988 119.785 143.239C119.326 142.49 118.8 141.904 118.226 141.481C117.643 141.058 117.021 140.828 116.361 140.799C115.701 140.77 115.022 140.962 114.314 141.395C113.616 141.827 113.128 142.336 112.86 142.941C112.592 143.546 112.516 144.209 112.63 144.93C112.745 145.65 113.032 146.38 113.491 147.139C113.95 147.888 114.467 148.484 115.05 148.907C115.634 149.329 116.256 149.56 116.916 149.589C117.576 149.618 118.264 149.425 118.963 148.993V148.984Z" fill="#42404F"/>
<path d="M21.12 133.133C8.31218 119.396 0.478264 100.933 0.478264 80.6352C0.478264 65.6974 4.72522 51.7491 12.0713 39.9526" stroke="#42404F" stroke-miterlimit="10"/>
<path d="M141.929 39.9526C149.275 51.7491 153.522 65.6974 153.522 80.6352C153.522 100.933 145.688 119.396 132.88 133.133" stroke="#42404F" stroke-miterlimit="10"/>
</g>
<defs>
<clipPath id="clip0_356_89">
<rect width="154" height="162" fill="white"/>
</clipPath>
</defs>
</svg>
